X:0251
T:Quick Step 45th. Regt.
M:6/8
L:1/8
Q:3/8=86
I: :: ::
Z:Jack Campin * www.campin.me.uk * 2009
K:G
D|G2G GBd|c3  B2c|dBG    E2F|GAG FED|\
  G2G GBd|c3  B2c|dBG    E2F|G3  G2:|
d|d2e B2c|d2g B2c|ded {d}c2B|A3  A2D|\
  G2G GBd|c3  B2c|dBG    E2F|G3  G2:|

